docs/img/selected.svg

<svg width="21" height="21" viewBox="0 0 21 21" fill="none" xmlns="http://www.w3.org/2000/svg">
<circle cx="10.5" cy="10.5" r="10.5" fill="#0169ED"/>
<path fill-rule="evenodd" clip-rule="evenodd" d="M11.816 8.4561C10.3168 9.80697 9.05553 10.9443 9.01325 10.9836L8.93638 11.055L7.7571 9.83189C7.10849 9.1592 6.56829 8.61187 6.55666 8.61565C6.54503 8.61941 6.19001 8.93652 5.76776 9.32032L5 10.0181L5.06758 10.0939C5.10474 10.1355 5.96647 11.0315 6.98251 12.0848L8.82986 14L8.94924 13.8875C9.0149 13.8256 10.592 12.4047 12.454 10.7298C14.3159 9.05501 15.8755 7.65073 15.9197 7.60922L16 7.53375L15.3955 6.89668C15.063 6.54629 14.7349 6.2012 14.6664 6.1298L14.5418 6L11.816 8.4561Z" fill="white"/>
</svg>

<svg width="21" height="21" fill="none" xmlns="http://www.w3.org/2000/svg"><circle cx="10.5" cy="10.5" r="10.5" fill="#0169ED"/><path fill-rule="evenodd" clip-rule="evenodd" d="M11.816 8.456c-1.5 1.351-2.76 2.488-2.803 2.528l-.077.071-1.179-1.223c-.649-.673-1.189-1.22-1.2-1.216-.012.003-.367.32-.79.704L5 10.018l.068.076c.037.042.898.938 1.915 1.99L8.83 14l.12-.113c.065-.061 1.642-1.482 3.504-3.157l3.466-3.12.08-.076-.604-.637c-.333-.35-.661-.696-.73-.767L14.542 6l-2.726 2.456z" fill="#fff"/></svg>
